X:15
M:2/4
L:1/8
K:Bb
f|d>c BA|{A}B3f|ga ba|g2 f2|ga bg|fa be|df ed|
c3:|f|d>c =B_a|_a2 gf|ed c=B|c3e|A>G Fg|g2 fB|

